X:1248
T:Svingedans
T:(SvL Skåne 1248)
T:efter Jöns Andersson Ryberg
R:Svingedans
O:Ry, Lövestad, Skåne
B:Svenska Låtar Skåne
M:3/4
L:1/8
K:D
|: A>A FA d>f | (f{gf})>e ed/e/ f2 | A>A FA d>f | (f{gf})>e c2 d2 :|
[| de fg e2 | e>g fa d2 | de fg e2 | eg fa d2 |
A>A FA d>f | (f{gf})>e ed/e/ f2 | A>A FA d>f | (f{gf})>e c2 d2 :|

